X: 10524
T: Doon-Hingin' Tie, The
R: reel
M: 4/4
K: Dmajor
F2DF EDEF|A2dc BABd|F3F dBAF|G2E2 E4|
F2DF EDEF|A2dc BABd|F2DF EDB,G,|A,2D2 D4:|
|:f2ef afef|d2Ad BABd|f3f afed|B2e2 e4|
[1 f2ef afef|d2Ad BABd|F2DF EDB,G,|A,2D2 D4:|
[2 f2ef afef|decd BcAB|GAFG EDB,G,|A,2D2 D4||

